X:1
T:Title
%%score { 1 | ( 2 3 ) }
L:1/8
Q:1/4=100
M:4/4
K:Ab
V:1 treble nm="Grand Piano"
V:2 bass 
V:3 bass 
V:1
 [CE]4 [DF]2 [CE]2 | c3 B A4 | F4 [DFA]2 [A,DF]2 | [A,CE]6 z2 | [A,EA]4 [DEG]2 [CEA]2 | B3 c B4 | %6
w: W.~H.~Doane * *||||||
 [EG]4 [FA]G .[B,=DF]2 | [G,E]6 z2 | [CE]4 [DF]2 [CE]2 | c3 B B4 | B4 c2 d2 | [Ed]3 [Ec] [Ec]4 | %12
w: ||||||
 [Ee]4 [Ec]2 .[FB]2 | [DFA]3 F F4 | E2 c2 c2 B2 | [CA]6 z2 |] %16
w: ||||
V:2
 [A,,A,]4 [A,,A,]2 [A,,A,]2 | [E,G,E]3 [=E,G,D] [F,A,C]4 | [D,A,D]4 D,2 D,2 | A,,6 z2 | %4
 C,4 B,,2 A,,2 | [E,G,E]3 [E,A,E] [E,G,E]4 | [B,,B,]4 z E z A, | E,6 z2 | %8
 [A,,A,]4 [A,,A,]2 [A,,A,]2 | [E,A,E]3 [E,G,E] [E,G,E]4 | [E,G,E]4 [E,A,E]2 [E,B,E]2 | %11
 [A,,B,]3 [A,,A,] [A,,A,]4 | [A,C]4 [A,,A,]2 z A | D,3 [D,A,D] [D,A,D]4 | C2 E2 [E,G,E]2 [E,G,D]2 | %15
 [A,,A,]6 z2 |] %16
V:3
 x8 | x8 | x8 | x8 | x8 | x8 | z4 [B,,B,]2 B,,2 | x8 | x8 | x8 | x8 | x8 | z4 z2 [C,A,]2 | x8 | %14
 [E,A,]4 z4 | x8 |] %16

